X: 2423
M: C
L: 1/8
K: Am
{^g}ua2 |\
z2{^g}a2 (uA3B) | cdec A3{g}a |\
z2{^g}a2 =G3A | BcdB G3{^g}a |\
z2{^g}a2 A3B | cdec A2(3BAG |\
|: vAB |\
vce zue uecA | vce zue zuecA |\
ce ze zecA | ce ze zecA |\


